icons/settings/Copy.svg

<path fill-rule="evenodd" clip-rule="evenodd"
	d="M5 4H14C14.5523 4 15 4.44772 15 5V6H16V5C16 3.89543 15.1046 3 14 3H5C3.89543 3 3 3.89543 3 5V14C3 15.1046 3.89543 16 5 16H6V15H5C4.44772 15 4 14.5523 4 14V5C4 4.44772 4.44772 4 5 4Z"
	fill="currentColor" />
<rect x="8.5" y="8.5" width="12" height="12" rx="1.5" stroke="currentColor" />

<path fill-rule="evenodd" clip-rule="evenodd" d="M5 4h9a1 1 0 0 1 1 1v1h1V5a2 2 0 0 0-2-2H5a2 2 0 0 0-2 2v9a2 2 0 0 0 2 2h1v-1H5a1 1 0 0 1-1-1V5a1 1 0 0 1 1-1Z" fill="currentColor"/><rect x="8.5" y="8.5" width="12" height="12" rx="1.5" stroke="currentColor"/>
